X: 780
T: Fangxian hao
%%abc-version 2.0
%%abcx-abcm2ps-target-version 5.9.1 (29 Sep 2008)
%%abc-creator hum2abc beta
%%abcx-conversion-date 2013/10/02 07:52:30
%%abc-edited-by Helmut Schaffrath
%%humdrum-veritas 600069528
%%humdrum-veritas-data 4150465138
%%continueall 1
%%barnumbers 0
L: 1/8
M: 2/4
K: G
B2A2 [I:setbarnb 1]| 
B2A2 | 
B A B E | 
G EG2 | 
B A B A | 
G BA2 | 
E E G B, | 
D4 | 
B d A G | 
E E G B | 
D4 |]  



